Costumes/p-block.svg

<?xml version="1.0" encoding="UTF-8" standalone="no"?>
<svg
   version="1.1"
   width="43.714378"
   height="79.57309"
   id="svg6"
   sodipodi:docname="p-block.svg"
   xmlns:inkscape="http://www.inkscape.org/namespaces/inkscape"
   xmlns:sodipodi="http://sodipodi.sourceforge.net/DTD/sodipodi-0.dtd"
   xmlns="http://www.w3.org/2000/svg"
   xmlns:svg="http://www.w3.org/2000/svg">
  <defs
     id="defs10" />
  <sodipodi:namedview
     id="namedview8"
     pagecolor="#ffffff"
     bordercolor="#000000"
     borderopacity="0.25"
     inkscape:showpageshadow="2"
     inkscape:pageopacity="0.0"
     inkscape:pagecheckerboard="0"
     inkscape:deskcolor="#d1d1d1" />
  <!-- Exported by Scratch - http://scratch.mit.edu/ -->
  <g
     id="ID0.33697850117459893"
     transform="translate(-0.28511038,-0.33978081)">
    <path
       id="ID0.39866629615426064"
       d="m 289.5,349.75 c 7.963,-1.849 13.737,-1.623 17.5,-0.75 11.14,3.202 22.789,6.544 25,19 0,2.667 0,5.333 0,8 -6.482,11.184 -12.056,23.278 -27,26 2.457,8.877 2.591,20.076 5,29 -1.742,4.3 -6.489,2.365 -4,9 -5.659,-0.326 -9.294,1.373 -13,3 -1.333,0 -2.667,0 -4,0 -4.269,-23.398 -5.079,-50.254 -9,-74 0,-3 0,-6 0,-9 4.118,0.785 6.372,0.34 9,-1 1.947,-2.049 -1.784,-7.163 0.5,-9.25 z M 327,379 c 7.433,-19.66 -15.918,-30.679 -35,-25 -0.663,27.355 0.59,53.25 7,77 0.431,-2.236 4.928,-0.405 7,-1 -2.024,-13.282 -4.155,-26.218 -4,-39 12.498,-0.234 22.048,-4.191 25,-12 z"
       transform="matrix(0.84066111,0,0,0.84066111,-235.1,-292.5)" />
    <path
       id="ID0.3580125533044338"
       fill="#ff9400"
       d="m 302,391 c -0.155,12.782 1.976,25.718 4,39 -2.072,0.595 -6.569,-1.236 -7,1 -6.41,-23.75 -7.663,-49.645 -7,-77 19.082,-5.679 42.433,5.34 35,25 -2.952,7.809 -12.502,11.766 -25,12 z m 0,-8 c 4.079,1.095 12.507,-1.261 17,-3 7.561,-12.167 -1.813,-22.832 -18,-20 0.584,7.917 1.068,17.235 1,23 z"
       transform="matrix(0.84066111,0,0,0.84066111,-235.1,-292.5)" />
    <path
       id="ID0.986502141226083"
       d="m 301,360 c 16.187,-2.832 25.561,7.833 18,20 -4.493,1.739 -12.921,4.095 -17,3 0.068,-5.765 -0.416,-15.083 -1,-23 z m 4,19 c 2.05,1.32 7.658,-0.484 10,-2 -0.264,-5.426 -6.326,-10.31 -11,-8 2.28,1.387 0.373,6.96 1,10 z"
       transform="matrix(0.84066111,0,0,0.84066111,-235.1,-292.5)" />
  </g>
</svg>

<svg version="1.1" width="44" height="80" xmlns="http://www.w3.org/2000/svg" xmlns:xlink="http://www.w3.org/1999/xlink">
  <!-- Exported by Scratch - http://scratch.mit.edu/ -->
  <g id="ID0.33697850117459893">
    <path id="ID0.39866629615426064" d="M 289.500 349.750 C 297.463 347.901 303.237 348.127 307 349 C 318.140 352.202 329.789 355.544 332 368 C 332 370.667 332 373.333 332 376 C 325.518 387.184 319.944 399.278 305 402 C 307.457 410.877 307.591 422.076 310 431 C 308.258 435.300 303.511 433.365 306 440 C 300.341 439.674 296.706 441.373 293 443 C 291.667 443 290.333 443 289 443 C 284.731 419.602 283.921 392.746 280 369 C 280 366 280 363 280 360 C 284.118 360.785 286.372 360.340 289 359 C 290.947 356.951 287.216 351.837 289.500 349.750 Z M 327 379 C 334.433 359.340 311.082 348.321 292 354 C 291.337 381.355 292.590 407.250 299 431 C 299.431 428.764 303.928 430.595 306 430 C 303.976 416.718 301.845 403.782 302 391 C 314.498 390.766 324.048 386.809 327 379 Z " transform="matrix(0.8406611084938049, 0, 0, 0.8406611084938049, -235.1, -292.5)"/>
    <path id="ID0.3580125533044338" fill="#FF9400" d="M 302 391 C 301.845 403.782 303.976 416.718 306 430 C 303.928 430.595 299.431 428.764 299 431 C 292.590 407.250 291.337 381.355 292 354 C 311.082 348.321 334.433 359.340 327 379 C 324.048 386.809 314.498 390.766 302 391 Z M 302 383 C 306.079 384.095 314.507 381.739 319 380 C 326.561 367.833 317.187 357.168 301 360 C 301.584 367.917 302.068 377.235 302 383 Z " transform="matrix(0.8406611084938049, 0, 0, 0.8406611084938049, -235.1, -292.5)"/>
    <path id="ID0.986502141226083" d="M 301 360 C 317.187 357.168 326.561 367.833 319 380 C 314.507 381.739 306.079 384.095 302 383 C 302.068 377.235 301.584 367.917 301 360 Z M 305 379 C 307.050 380.320 312.658 378.516 315 377 C 314.736 371.574 308.674 366.690 304 369 C 306.280 370.387 304.373 375.960 305 379 Z " transform="matrix(0.8406611084938049, 0, 0, 0.8406611084938049, -235.1, -292.5)"/>
  </g>
</svg>
